src/icons/heavy-rain.svg

<svg
    width="26"
    height="27"
    viewBox="0 0 26 27"
    fill="none"
    xmlns="http://www.w3.org/2000/svg"
  >
    <path
      d="M6.12207 17.4004H19.5068C23.1055 17.4004 25.8018 14.6719 25.8018 11.2666C25.8018 7.76465 22.9766 5.17578 19.292 5.17578C17.9707 2.57617 15.5107 0.814453 12.2559 0.814453C8.1416 0.814453 4.80078 3.9834 4.40332 7.99023C2.41602 8.58105 0.922852 10.2998 0.922852 12.6201C0.922852 15.2842 2.86719 17.4004 6.12207 17.4004ZM8.60352 25.6289L11.751 20.1826C11.9551 19.8281 11.8477 19.4199 11.5039 19.2158C11.1494 19.0225 10.752 19.1299 10.5479 19.4951L7.40039 24.9521C7.20703 25.2852 7.29297 25.6934 7.64746 25.8975C7.99121 26.0908 8.41016 25.9727 8.60352 25.6289ZM4.32812 25.6289L7.46484 20.1826C7.66895 19.8281 7.56152 19.4307 7.21777 19.2266C6.86328 19.0225 6.47656 19.1299 6.26172 19.4951L3.11426 24.9521C2.9209 25.2852 3.00684 25.6934 3.36133 25.8975C3.71582 26.0908 4.12402 25.9727 4.32812 25.6289ZM12.8789 25.6289L16.0264 20.1826C16.2305 19.8281 16.123 19.4307 15.7793 19.2266C15.4248 19.0225 15.0273 19.1299 14.8232 19.4951L11.665 24.9521C11.4824 25.2852 11.5684 25.6934 11.9229 25.8975C12.2666 26.0908 12.6855 25.9727 12.8789 25.6289ZM17.1328 25.6396L20.3018 20.1719C20.4951 19.8281 20.3984 19.4092 20.0547 19.2158C19.7109 19.0332 19.3027 19.1299 19.0986 19.4844L15.9619 24.9307C15.7578 25.2852 15.8545 25.6934 16.1982 25.8975C16.5205 26.0908 16.9502 25.9727 17.1328 25.6396Z"
      fill="white"
    />
  </svg>

<svg xmlns="http://www.w3.org/2000/svg" width="26" height="27" fill="none"><path fill="#fff" d="M6.122 17.4h13.385c3.598 0 6.295-2.728 6.295-6.133 0-3.502-2.825-6.091-6.51-6.091-1.321-2.6-3.781-4.362-7.036-4.362-4.114 0-7.455 3.17-7.853 7.176-1.987.591-3.48 2.31-3.48 4.63 0 2.664 1.944 4.78 5.2 4.78Zm2.482 8.229 3.147-5.446a.69.69 0 0 0-.247-.967c-.355-.194-.752-.086-.956.28L7.4 24.951c-.193.333-.107.741.247.945a.694.694 0 0 0 .957-.268Zm-4.276 0 3.137-5.446a.679.679 0 0 0-.247-.956c-.355-.204-.741-.097-.956.268l-3.148 5.457c-.193.333-.107.741.247.945a.706.706 0 0 0 .967-.268Zm8.55 0 3.148-5.446a.679.679 0 0 0-.247-.956c-.354-.204-.752-.097-.956.268l-3.158 5.457c-.183.333-.097.741.258.945a.694.694 0 0 0 .956-.268Zm4.255.01 3.169-5.467c.193-.344.096-.763-.247-.956a.697.697 0 0 0-.956.268l-3.137 5.447c-.204.354-.107.762.236.966a.677.677 0 0 0 .935-.257Z"/></svg>
